X:1
T:Title
%%score { 1 | 2 }
L:1/8
M:4/4
K:Ab
V:1 treble nm="Grand Piano"
V:2 bass 
V:1
 z4 z2[Q:1/4=100] [CE]2 | [CEA]2 [CFA]2 [DFA]2 [Ec]2 | [FB]2 [FA]2 F2 F2 | E2 E2 [EA]2 [Ec]2 | %4
[M:3/4] [Ec]2 [EB]4 |[M:1/4] [DE]2 |[M:4/4] [DA]2 [DA]2 [A,EA]2 [A,Fc]2 | %7
 [DFB]2 [DFA]2 [DF]2 [DF]2 | [DE]2 [Gd]2 [Gc]2 [GB]2 |[M:3/4] [GB]2 A4 |[M:1/4] c2 | %11
[M:4/4] e3 [Ae] [Ae]2 [ce]2 | [CAc] [CEA]3- [CEA]2 [CEA]2 | [Ec]2 [Ec]2 [DEB]2 [EA]2 | %14
[M:3/4] [EGB]6 |[M:1/4] [EAc]2 |[M:4/4] [CAe]3 [CAe] [CAe]2 [EAc]2 | [Fd]2 [B,DF]4 [B,DF]2 | %18
 [G,DE] [G,DE]3 [B,DG]2 [DEB]2 |[M:3/4] [A,CEA]6 |] %20
V:2
 z4 z2 A,2 | A,2 F,2 D,2 A,,2 | [D,D]2 [D,D]2 [D,A,D]2 [D,A,D]2 | %3
 [A,C]2 [E,A,C]2 [C,A,]2 [A,,A,]2 |[M:3/4] [E,A,]2 [E,G,]4 |[M:1/4] [B,,G,]2 | %6
[M:4/4] [A,,A,]2 [D,F,]2 C,2 F,,2 | B,,2 B,,2 [B,,B,]2 [B,,B,]2 | [E,G,]2 [E,B,]2 [E,D]2 [E,D]2 | %9
[M:3/4] [E,D]2 [A,CE]4 |[M:1/4] [A,E]2 |[M:4/4] [A,,CE]3 [C,A,] [E,C]2 A,2 | A,, A,,3- A,,2 A,,2 | %13
 A,,2 A,,2 B,,2 C,2 |[M:3/4] E,6 |[M:1/4] A,,2 |[M:4/4] A,,3 A,, A,,2 A,,2 | B,,2 B,,4 B,,2 | %18
 E, E,3 E,2 E,2 |[M:3/4] A,,6 |] %20

